icon-themes/breeze_svg/sfx2/res/actionview026.svg

<svg viewBox="0 0 24 24" xmlns="http://www.w3.org/2000/svg"><path d="m4 4v16h16v-16zm12 2h3v1h-3zm-11 3h14v1h-14zm11 3h3v1h-3zm-11 3h14v1h-14zm11 3h3v1h-3z" fill="#4d4d4d"/></svg>

<svg xmlns="http://www.w3.org/2000/svg" viewBox="0 0 24 24">
 <path 
     style="fill:#4d4d4d" 
     d="M 4 4 L 4 20 L 20 20 L 20 4 L 4 4 z M 16 6 L 19 6 L 19 7 L 16 7 L 16 6 z M 5 9 L 19 9 L 19 10 L 5 10 L 5 9 z M 16 12 L 19 12 L 19 13 L 16 13 L 16 12 z M 5 15 L 19 15 L 19 16 L 5 16 L 5 15 z M 16 18 L 19 18 L 19 19 L 16 19 L 16 18 z "
     />
</svg>
